X:1
T: Lasses like nae Brandy
C:
R:Reel
Q: 232
K:A
M:4/4
L:1/8
|:f|ef1/2g1/2 ae fd ec|B=g gB d2 df|ef1/2g1/2 ae fd ec|Aa ac e3f|
ef1/2g1/2 ae fd ec|B=g gB d2 df|ef1/2g1/2 ae fd ec|Aa ac e3f|
eA cA eA cA|B=g gB d2 df|eA cA ae cA|Aa ac e3f|
eA cA eA cA|B=g gB d2 df|af =ge fd ec|bB Bc d3:|
